svg/fluentui-system-icons/ic_fluent_folder_arrow_left_32_filled.svg

<svg width="32" height="32" viewBox="0 0 32 32" fill="none" xmlns="http://www.w3.org/2000/svg">
<path d="M14.4134 8H14.3508L12.1247 6.21913C11.9474 6.07728 11.7271 6 11.5 6H8C5.79086 6 4 7.79086 4 10V11H11.1134L14.4134 8ZM17.3866 8L12.1727 12.7399C11.9886 12.9072 11.7488 13 11.5 13H4V22C4 24.2091 5.79086 26 8 26H14.5121C14.1805 25.0617 14 24.0519 14 23C14 18.0294 18.0294 14 23 14C24.8501 14 26.5699 14.5583 28 15.5155V12C28 9.79086 26.2091 8 24 8H17.3866ZM15.5 23C15.5 27.1421 18.8579 30.5 23 30.5C27.1421 30.5 30.5 27.1421 30.5 23C30.5 18.8579 27.1421 15.5 23 15.5C18.8579 15.5 15.5 18.8579 15.5 23ZM27.75 24H20.0607L22.7803 26.7197C23.0732 27.0126 23.0732 27.4874 22.7803 27.7803C22.4874 28.0732 22.0126 28.0732 21.7197 27.7803L17.7197 23.7803C17.4268 23.4874 17.4268 23.0126 17.7197 22.7197L21.7197 18.7197C22.0126 18.4268 22.4874 18.4268 22.7803 18.7197C23.0732 19.0126 23.0732 19.4874 22.7803 19.7803L20.0607 22.5H27.75C28.1642 22.5 28.5 22.8358 28.5 23.25C28.5 23.6642 28.1642 24 27.75 24Z" fill="#212121"/>
</svg>

<svg xmlns="http://www.w3.org/2000/svg" width="32" height="32"><path d="M14.413 8h-.062l-2.226-1.78A1 1 0 0 0 11.5 6H8a4 4 0 0 0-4 4v1h7.113l3.3-3Zm2.974 0-5.214 4.74a1 1 0 0 1-.673.26H4v9a4 4 0 0 0 4 4h6.512A9 9 0 0 1 28 15.515V12a4 4 0 0 0-4-4h-6.613ZM15.5 23a7.5 7.5 0 1 0 15 0 7.5 7.5 0 0 0-15 0Zm12.25 1h-7.69l2.72 2.72a.75.75 0 1 1-1.06 1.06l-4-4a.75.75 0 0 1 0-1.06l4-4a.75.75 0 1 1 1.06 1.06l-2.72 2.72h7.69a.75.75 0 0 1 0 1.5Z"/></svg>
